storage/app/icons/phosphoricons/thin/square-logo-thin.svg

<svg xmlns="http://www.w3.org/2000/svg" fill="currentColor" viewBox="0 0 256 256"><path d="M208 36H48a12 12 0 0 0-12 12v160a12 12 0 0 0 12 12h160a12 12 0 0 0 12-12V48a12 12 0 0 0-12-12m4 172a4 4 0 0 1-4 4H48a4 4 0 0 1-4-4V48a4 4 0 0 1 4-4h160a4 4 0 0 1 4 4ZM160 92H96a4 4 0 0 0-4 4v64a4 4 0 0 0 4 4h64a4 4 0 0 0 4-4V96a4 4 0 0 0-4-4m-4 64h-56v-56h56Z"/></svg>

<svg xmlns="http://www.w3.org/2000/svg" viewBox="0 0 256 256" fill="currentColor"><path d="M208,36H48A12,12,0,0,0,36,48V208a12,12,0,0,0,12,12H208a12,12,0,0,0,12-12V48A12,12,0,0,0,208,36Zm4,172a4,4,0,0,1-4,4H48a4,4,0,0,1-4-4V48a4,4,0,0,1,4-4H208a4,4,0,0,1,4,4ZM160,92H96a4,4,0,0,0-4,4v64a4,4,0,0,0,4,4h64a4,4,0,0,0,4-4V96A4,4,0,0,0,160,92Zm-4,64H100V100h56Z"/></svg>
